Obsidian-SemiLight/actions/24s/format-font-size-less.svg

<svg viewBox="0 0 24 24" xmlns="http://www.w3.org/2000/svg"><path d="m9.2167969 4-5.2167969 14h1.6875l1.6679688-4.429688h5.5625002l.148437.429688h1.666016l-3.521484-10zm1.0156251 1.6113281 2.128906 6.6738279h-4.4882811zm5.767578 8.1816409v4.292969l-2.292969-2.292969-.707031.707031 3.292969 3.292969.207031.207031.207031-.207031 3.292969-3.292969-.707031-.707031-2.292969 2.292969v-4.292969z" fill="#4d4d4d"/></svg>

<svg xmlns="http://www.w3.org/2000/svg" viewBox="0 0 24 24">
  <defs id="defs3051">
    <style type="text/css" id="current-color-scheme">
      .ColorScheme-Text {
        color:#4d4d4d;
      }
      </style>
  </defs>
 <path style="fill:currentColor;fill-opacity:1;stroke:none" 
     d="M 9.2167969 4 L 4 18 L 5.6875 18 L 7.3554688 13.570312 L 12.917969 13.570312 L 13.066406 14 L 14.732422 14 L 11.210938 4 L 9.2167969 4 z M 10.232422 5.6113281 L 12.361328 12.285156 L 7.8730469 12.285156 L 10.232422 5.6113281 z M 16 13.792969 L 16 18.085938 L 13.707031 15.792969 L 13 16.5 L 16.292969 19.792969 L 16.5 20 L 16.707031 19.792969 L 20 16.5 L 19.292969 15.792969 L 17 18.085938 L 17 13.792969 L 16 13.792969 z "
     class="ColorScheme-Text"
     />
</svg>
